ir/crop-rotate-br.svg

<svg viewBox="0 0 24 24" stroke-width="1.5" fill="none" xmlns="http://www.w3.org/2000/svg" height="1em" width="1em">
  <path d="M14 20H17C19.2091 20 21 18.2091 21 16V12" stroke="currentColor" stroke-linecap="round" stroke-linejoin="round"/>
  <path d="M16.5 22.5L14 20L16.5 17.5" stroke="currentColor" stroke-linecap="round" stroke-linejoin="round"/>
  <path d="M14 11L14 5C14 4.44772 13.5523 4 13 4L7 4" stroke="currentColor" stroke-linecap="round" stroke-linejoin="round"/>
  <path d="M2 4H4" stroke="currentColor" stroke-linecap="round" stroke-linejoin="round"/>
  <path d="M14 16V14" stroke="currentColor" stroke-linecap="round" stroke-linejoin="round"/>
  <path d="M4 2L4 13C4 13.5523 4.44772 14 5 14L16 14" stroke="currentColor" stroke-linecap="round" stroke-linejoin="round"/>
</svg>

<svg viewBox="0 0 24 24" stroke-width="1.5" fill="none" xmlns="http://www.w3.org/2000/svg" height="1em" width="1em">
  <path d="M14 20h3a4 4 0 0 0 4-4v-4" stroke="currentColor" stroke-linecap="round" stroke-linejoin="round"/>
  <path d="M16.5 22.5 14 20l2.5-2.5M14 11V5a1 1 0 0 0-1-1H7M2 4h2m10 12v-2M4 2v11a1 1 0 0 0 1 1h11" stroke="currentColor" stroke-linecap="round" stroke-linejoin="round"/>
</svg>
